public/images/logos/c.svg

<svg width="28" height="30" viewBox="0 0 28 30" fill="none" xmlns="http://www.w3.org/2000/svg">
<g clip-path="url(#clip0_123_14)">
<path d="M26.1467 9.36823C26.156 8.94433 26.0539 8.52541 25.8505 8.15335C25.6397 7.79372 25.3359 7.49758 24.9709 7.29612C21.7357 5.42817 18.4994 3.56282 15.262 1.70009C14.3902 1.19603 13.5453 1.21391 12.6791 1.72579C11.3916 2.48244 4.94389 6.18071 3.02267 7.295C2.23138 7.75324 1.84691 8.45512 1.84691 9.36711V20.6329C1.83874 21.0479 1.93685 21.458 2.13191 21.8244C2.34278 22.195 2.65228 22.4998 3.02602 22.7051C4.94725 23.8227 11.396 27.5165 12.6836 28.2765C13.5497 28.7884 14.3947 28.8063 15.2676 28.3022C18.502 26.4335 21.7383 24.5674 24.9765 22.7039C25.3503 22.4987 25.6598 22.1938 25.8706 21.8232C26.0657 21.4569 26.1638 21.0468 26.1556 20.6318V9.36823H26.1467Z" fill="#004482"/>
<path d="M26.149 20.633C26.1574 21.0479 26.0592 21.4581 25.864 21.8244C25.816 21.9116 25.7618 21.9953 25.7019 22.0747L13.9968 15.0001L24.971 7.29614C25.3356 7.49767 25.639 7.79382 25.8494 8.15337C26.0537 8.52513 26.1562 8.94419 26.1467 9.36825C26.149 13.1235 26.149 20.633 26.149 20.633V20.633Z" fill="#00599C"/>
<path d="M25.8494 8.15339L2.12852 21.8244C1.93433 21.4582 1.837 21.0485 1.84576 20.6341V9.36715C1.84576 8.45516 2.23134 7.75328 3.02152 7.29504C4.94386 6.18075 11.3915 2.48247 12.6802 1.72359C13.5441 1.21171 14.3902 1.19383 15.2619 1.69789C18.4964 3.56659 21.7327 5.43268 24.9709 7.29616C25.3355 7.49769 25.639 7.79383 25.8494 8.15339V8.15339Z" fill="#659AD2"/>
<path d="M14.4662 19.5511C13.6675 19.5522 12.8831 19.3388 12.195 18.9333C11.5069 18.5277 10.9404 17.9448 10.5545 17.2454C10.515 17.1754 10.4778 17.1038 10.4427 17.0308C9.96665 16.0476 9.86766 14.9239 10.1645 13.8725C10.4613 12.8212 11.1334 11.9152 12.0534 11.3261C12.9735 10.7371 14.0775 10.5059 15.1566 10.6762C16.2357 10.8466 17.2148 11.4068 17.9086 12.2507C17.9678 12.3222 18.0204 12.3971 18.0796 12.4742C18.1064 12.5111 18.1332 12.548 18.1578 12.586L22.0774 10.3283C21.982 10.1748 21.8822 10.0258 21.7779 9.88126C21.7231 9.80414 21.6661 9.73037 21.6125 9.65773C20.2501 7.88791 18.274 6.69285 16.074 6.30824C13.8739 5.92363 11.6096 6.37739 9.72761 7.58004C7.84563 8.78269 6.48263 10.6469 5.90744 12.805C5.33225 14.9631 5.58662 17.2584 6.6204 19.2382C6.6584 19.3097 6.69752 19.3801 6.73216 19.4505C7.4914 20.7901 8.58406 21.9106 9.90409 22.7033C11.2241 23.496 12.7267 23.934 14.2659 23.9747C15.8051 24.0154 17.3287 23.6575 18.6888 22.9356C20.0489 22.2138 21.1992 21.1526 22.0282 19.8551L18.1958 17.5382C17.7901 18.1569 17.2367 18.6649 16.5856 19.0163C15.9345 19.3677 15.2061 19.5515 14.4662 19.5511V19.5511Z" fill="white"/>
</g>
<defs>
<clipPath id="clip0_123_14">
<rect width="25" height="29.5788" fill="white" transform="translate(1.5 0.210693)"/>
</clipPath>
</defs>
</svg>

<svg xmlns="http://www.w3.org/2000/svg" width="28" height="30" fill="none" xmlns:v="https://vecta.io/nano"><g clip-path="url(#A)"><path d="M26.147 9.368a2.42 2.42 0 0 0-.296-1.215 2.32 2.32 0 0 0-.88-.857L15.262 1.7c-.872-.504-1.717-.486-2.583.026L3.023 7.295c-.791.458-1.176 1.16-1.176 2.072v11.266c-.008.415.09.825.285 1.192.211.371.52.675.894.881l9.658 5.571c.866.512 1.711.53 2.584.026l9.709-5.598c.374-.205.683-.51.894-.881a2.43 2.43 0 0 0 .285-1.191V9.368h-.009z" fill="#004482"/><path d="M26.149 20.633a2.43 2.43 0 0 1-.285 1.191c-.048.087-.102.171-.162.25L13.997 15l10.974-7.704c.365.202.668.498.878.857a2.41 2.41 0 0 1 .297 1.215l.002 11.265h0z" fill="#00599c"/><path d="M25.849 8.153L2.129 21.824a2.43 2.43 0 0 1-.283-1.19V9.367c0-.912.386-1.614 1.176-2.072l9.659-5.571c.864-.512 1.71-.53 2.582-.026l9.709 5.598c.365.202.668.498.878.857h0z" fill="#659ad2"/><path d="M14.466 19.551a4.46 4.46 0 0 1-3.912-2.306l-.112-.215c-.476-.983-.575-2.107-.278-3.158s.969-1.957 1.889-2.546 2.024-.82 3.103-.65 2.058.731 2.752 1.575l.171.223.078.112 3.92-2.258-.3-.447-.165-.224A8.93 8.93 0 0 0 9.728 7.58 8.93 8.93 0 0 0 6.62 19.238l.112.212a8.93 8.93 0 0 0 7.534 4.524 8.93 8.93 0 0 0 7.762-4.12l-3.832-2.317c-.406.619-.959 1.127-1.61 1.478s-1.38.535-2.119.535h0z" fill="#fff"/></g><defs><clipPath id="A"><path fill="#fff" transform="translate(1.5 .211)" d="M0 0h25v29.579H0z"/></clipPath></defs></svg>
